parsexml/22-105739-2710.xmp
<x:xmpmeta xmlns:x="adobe:ns:meta/" x:xmptk="Adobe XMP Core 5.6-c011 79.156380, 2014/05/21-23:38:37        ">
 <rdf:RDF xmlns:rdf="http://www.w3.org/1999/02/22-rdf-syntax-ns#">
  <rdf:Description rdf:about=""
    xmlns:xmp="http://ns.adobe.com/xap/1.0/"
    xmlns:aux="http://ns.adobe.com/exif/1.0/aux/"
    xmlns:photoshop="http://ns.adobe.com/photoshop/1.0/"
    xmlns:xmpMM="http://ns.adobe.com/xap/1.0/mm/"
    xmlns:stEvt="http://ns.adobe.com/xap/1.0/sType/ResourceEvent#"
    xmlns:stRef="http://ns.adobe.com/xap/1.0/sType/ResourceRef#"
    xmlns:dc="http://purl.org/dc/elements/1.1/"
    xmlns:tiff="http://ns.adobe.com/tiff/1.0/"
    xmlns:exif="http://ns.adobe.com/exif/1.0/"
    xmlns:crs="http://ns.adobe.com/camera-raw-settings/1.0/"
   xmp:ModifyDate="2016-03-22T21:54:33-07:00"
   xmp:CreateDate="2016-03-22T10:57:39.23"
   xmp:MetadataDate="2017-01-05T16:15:07-08:00"
   xmp:CreatorTool="Adobe DNG Converter 9.4 (Windows)"
   xmp:Rating="0"
   aux:SerialNumber="042021004015"
   aux:LensInfo="50/1 150/1 0/0 0/0"
   aux:Lens="50-150mm"
   aux:LensID="174"
   aux:LensSerialNumber="0000000000"
   aux:ImageNumber="0"
   aux:ApproximateFocusDistance="531/100"
   aux:FlashCompensation="0/1"
   aux:Firmware="1.0.5"
   aux:LateralChromaticAberrationCorrectionAlreadyApplied="True"
   photoshop:DateCreated="2016-03-22T10:57:39.23"
   photoshop:SidecarForExtension="CR2"
   photoshop:EmbeddedXMPDigest="AD0ACF660F79AC49FD004B2DD3BC0461"
   xmpMM:DocumentID="xmp.did:162bf787-5d3d-a04e-83ba-ce41b72afcbf"
   xmpMM:OriginalDocumentID="3DA4C3ED0E0B1074ACFD4F203C1AFF59"
   xmpMM:InstanceID="xmp.iid:ebe1a800-233f-f240-a1d8-3a86c06178c2"
   dc:format="image/x-canon-cr2"
   tiff:Make="Canon"
   tiff:Model="Canon EOS 7D Mark II"
   tiff:Orientation="8"
   exif:ExifVersion="0230"
   exif:ExposureTime="1/500"
   exif:ShutterSpeedValue="8965784/1000000"
   exif:FNumber="28/10"
   exif:ApertureValue="2970854/1000000"
   exif:ExposureProgram="3"
   exif:SensitivityType="2"
   exif:RecommendedExposureIndex="2500"
   exif:ExposureBiasValue="1/1"
   exif:MaxApertureValue="3/1"
   exif:MeteringMode="5"
   exif:FocalLength="150/1"
   exif:CustomRendered="0"
   exif:ExposureMode="0"
   exif:WhiteBalance="0"
   exif:SceneCaptureType="0"
   exif:FocalPlaneXResolution="79937569/32768"
   exif:FocalPlaneYResolution="79937569/32768"
   exif:FocalPlaneResolutionUnit="3"
   exif:DateTimeOriginal="2016-03-22T10:57:39.23"
   crs:RawFileName="22-105739-2710.CR2"
   crs:Version="9.4"
   crs:ProcessVersion="6.7"
   crs:WhiteBalance="Custom"
   crs:AutoWhiteVersion="134348800"
   crs:Temperature="4250"
   crs:Tint="+13"
   crs:Saturation="-5"
   crs:Sharpness="25"
   crs:LuminanceSmoothing="0"
   crs:ColorNoiseReduction="25"
   crs:VignetteAmount="0"
   crs:ShadowTint="0"
   crs:RedHue="0"
   crs:RedSaturation="0"
   crs:GreenHue="0"
   crs:GreenSaturation="+8"
   crs:BlueHue="-12"
   crs:BlueSaturation="+8"
   crs:Vibrance="-10"
   crs:HueAdjustmentRed="+5"
   crs:HueAdjustmentOrange="+7"
   crs:HueAdjustmentYellow="+22"
   crs:HueAdjustmentGreen="+48"
   crs:HueAdjustmentAqua="+3"
   crs:HueAdjustmentBlue="-7"
   crs:HueAdjustmentPurple="+21"
   crs:HueAdjustmentMagenta="-25"
   crs:SaturationAdjustmentRed="-10"
   crs:SaturationAdjustmentOrange="-19"
   crs:SaturationAdjustmentYellow="-25"
   crs:SaturationAdjustmentGreen="-51"
   crs:SaturationAdjustmentAqua="+7"
   crs:SaturationAdjustmentBlue="+5"
   crs:SaturationAdjustmentPurple="-11"
   crs:SaturationAdjustmentMagenta="-39"
   crs:LuminanceAdjustmentRed="0"
   crs:LuminanceAdjustmentOrange="-2"
   crs:LuminanceAdjustmentYellow="+28"
   crs:LuminanceAdjustmentGreen="+28"
   crs:LuminanceAdjustmentAqua="+14"
   crs:LuminanceAdjustmentBlue="+19"
   crs:LuminanceAdjustmentPurple="+18"
   crs:LuminanceAdjustmentMagenta="-12"
   crs:SplitToningShadowHue="0"
   crs:SplitToningShadowSaturation="0"
   crs:SplitToningHighlightHue="0"
   crs:SplitToningHighlightSaturation="0"
   crs:SplitToningBalance="0"
   crs:ParametricShadows="0"
   crs:ParametricDarks="0"
   crs:ParametricLights="0"
   crs:ParametricHighlights="0"
   crs:ParametricShadowSplit="25"
   crs:ParametricMidtoneSplit="50"
   crs:ParametricHighlightSplit="75"
   crs:SharpenRadius="+1.0"
   crs:SharpenDetail="25"
   crs:SharpenEdgeMasking="0"
   crs:PostCropVignetteAmount="0"
   crs:GrainAmount="0"
   crs:ColorNoiseReductionDetail="50"
   crs:ColorNoiseReductionSmoothness="50"
   crs:LensProfileEnable="0"
   crs:LensManualDistortionAmount="0"
   crs:PerspectiveVertical="0"
   crs:PerspectiveHorizontal="0"
   crs:PerspectiveRotate="0.0"
   crs:PerspectiveScale="100"
   crs:PerspectiveAspect="0"
   crs:PerspectiveUpright="0"
   crs:AutoLateralCA="0"
   crs:Exposure2012="+0.25"
   crs:Contrast2012="+89"
   crs:Highlights2012="-63"
   crs:Shadows2012="-2"
   crs:Whites2012="-41"
   crs:Blacks2012="+80"
   crs:Clarity2012="0"
   crs:DefringePurpleAmount="0"
   crs:DefringePurpleHueLo="30"
   crs:DefringePurpleHueHi="70"
   crs:DefringeGreenAmount="0"
   crs:DefringeGreenHueLo="40"
   crs:DefringeGreenHueHi="60"
   crs:Dehaze="0"
   crs:ToneMapStrength="0"
   crs:ConvertToGrayscale="False"
   crs:ToneCurveName="Medium Contrast"
   crs:ToneCurveName2012="Linear"
   crs:CameraProfile="Adobe Standard"
   crs:CameraProfileDigest="986DA3807E87AD9D00B35EFF80D467B9"
   crs:LensProfileSetup="LensDefaults"
   crs:HasSettings="True"
   crs:HasCrop="False"
   crs:AlreadyApplied="False">
   <xmpMM:History>
    <rdf:Seq>
     <rdf:li
      stEvt:action="saved"
      stEvt:instanceID="xmp.iid:b15804a9-f3ce-f34e-a0ae-77f0669df730"
      stEvt:when="2016-03-22T21:53:35-07:00"
      stEvt:softwareAgent="Adobe Photoshop Camera Raw 9.4 (Windows)"
      stEvt:changed="/metadata"/>
     <rdf:li
      stEvt:action="derived"
      stEvt:parameters="converted from image/x-canon-cr2 to image/dng, saved to new location"/>
     <rdf:li
      stEvt:action="saved"
      stEvt:instanceID="xmp.iid:162bf787-5d3d-a04e-83ba-ce41b72afcbf"
      stEvt:when="2016-03-22T21:54:33-07:00"
      stEvt:softwareAgent="Adobe DNG Converter 9.4 (Windows)"
      stEvt:changed="/"/>
     <rdf:li
      stEvt:action="saved"
      stEvt:instanceID="xmp.iid:a5e8dde8-bcd9-4a0f-a163-541fd48113b3"
      stEvt:when="2016-04-05T18:54:06-05:00"
      stEvt:softwareAgent="Adobe Photoshop Lightroom 6.0 (Macintosh)"
      stEvt:changed="/metadata"/>
     <rdf:li
      stEvt:action="saved"
      stEvt:instanceID="xmp.iid:ebe1a800-233f-f240-a1d8-3a86c06178c2"
      stEvt:when="2017-01-05T16:15:07-08:00"
      stEvt:softwareAgent="Adobe Photoshop Camera Raw 9.4 (Windows)"
      stEvt:changed="/metadata"/>
    </rdf:Seq>
   </xmpMM:History>
   <xmpMM:DerivedFrom
    stRef:instanceID="xmp.iid:b15804a9-f3ce-f34e-a0ae-77f0669df730"
    stRef:documentID="3DA4C3ED0E0B1074ACFD4F203C1AFF59"
    stRef:originalDocumentID="3DA4C3ED0E0B1074ACFD4F203C1AFF59"/>
   <exif:ISOSpeedRatings>
    <rdf:Seq>
     <rdf:li>2500</rdf:li>
    </rdf:Seq>
   </exif:ISOSpeedRatings>
   <exif:Flash
    exif:Fired="False"
    exif:Return="0"
    exif:Mode="2"
    exif:Function="False"
    exif:RedEyeMode="False"/>
   <crs:ToneCurve>
    <rdf:Seq>
     <rdf:li>0, 0</rdf:li>
     <rdf:li>32, 22</rdf:li>
     <rdf:li>64, 56</rdf:li>
     <rdf:li>128, 128</rdf:li>
     <rdf:li>192, 196</rdf:li>
     <rdf:li>255, 255</rdf:li>
    </rdf:Seq>
   </crs:ToneCurve>
   <crs:ToneCurveRed>
    <rdf:Seq>
     <rdf:li>0, 0</rdf:li>
     <rdf:li>255, 255</rdf:li>
    </rdf:Seq>
   </crs:ToneCurveRed>
   <crs:ToneCurveGreen>
    <rdf:Seq>
     <rdf:li>0, 0</rdf:li>
     <rdf:li>255, 255</rdf:li>
    </rdf:Seq>
   </crs:ToneCurveGreen>
   <crs:ToneCurveBlue>
    <rdf:Seq>
     <rdf:li>0, 0</rdf:li>
     <rdf:li>255, 255</rdf:li>
    </rdf:Seq>
   </crs:ToneCurveBlue>
   <crs:ToneCurvePV2012>
    <rdf:Seq>
     <rdf:li>0, 0</rdf:li>
     <rdf:li>255, 255</rdf:li>
    </rdf:Seq>
   </crs:ToneCurvePV2012>
   <crs:ToneCurvePV2012Red>
    <rdf:Seq>
     <rdf:li>0, 0</rdf:li>
     <rdf:li>255, 255</rdf:li>
    </rdf:Seq>
   </crs:ToneCurvePV2012Red>
   <crs:ToneCurvePV2012Green>
    <rdf:Seq>
     <rdf:li>0, 0</rdf:li>
     <rdf:li>255, 255</rdf:li>
    </rdf:Seq>
   </crs:ToneCurvePV2012Green>
   <crs:ToneCurvePV2012Blue>
    <rdf:Seq>
     <rdf:li>0, 0</rdf:li>
     <rdf:li>255, 255</rdf:li>
    </rdf:Seq>
   </crs:ToneCurvePV2012Blue>
  </rdf:Description>
 </rdf:RDF>
</x:xmpmeta>
